X: 3072
T: HIELAN' BROCHAN
Q:"Reel."
R: Reel.
%R:reel
B: James Kerr "Merry Melodies" v.3 p.10 #72
Z: 2016 John Chambers <jc:trillian.mit.edu>
M: C
L: 1/8
K: G
(Bc) |\
d2(ge) dBGB | dBgB d2(Bc) |\
d2(ge) dBGB | A=FFA c2 ::\
(Bc) |\
dGBG dGGB | dGGB d2(ge) |\
dGBG dGGB | A=FFA c2 :|

%%sep 1 1 500
%%sep 1 1 500

